!!!OTL: WOHL AUF ZUM TANZ
!!!ARE: Europa, Mitteleuropa, Deutschland
!!!SCT: B0611
!!!YEM: Copyright 1995, estate of Helmut Schaffrath.
**kern
*ICvox
*Ivox
*M2/4
*k[b-e-]
*B-:
{16ff
16dd
=1
8b-
8b-
8b-
16cc
16a
=2
8f
8f
8f}
{8d
=3
8e-
8d
8e-
8en
=4
4f
8r}
{8ff
=5
8ee-
8cc
8cc
8ee-
=6
8dd
8b-
8b-}
{8dd
=7
8cc
16cc
16ee-
8a
16a
16cc
=8
4b-
8r}
{8dd
=9
8cc
16cc
16ee-
8a
16a
16cc
=10
4b-
8r}
==
!!!AGN: Staende -, Bauern - Lied, Tanz
!!!ONB: ESAC (Essen Associative Code) Database: BOEHME
!!!AMT: simple duple
!!!AIN: vox
!!!EED: Helmut Schaffrath
!!!EEV: 1.0
*-
